dist/svg/static/print-large.svg

<svg xmlns="http://www.w3.org/2000/svg" width="48" height="48" viewBox="0 0 48 48"><g fill="none" stroke="currentColor" stroke-miterlimit="10"><path d="M38.5 27.5h5.002a2 2 0 0 1 1.998 2v15h-43v-15a2 2 0 0 1 1.998-2H9.5"/><path d="M38.5 13.498V35.5h-29v-32h19l10 9.998z"/><path d="M28.5 3.5v10h10M16 27.5h16m-16-7h16"/></g></svg>

<?xml version="1.0" encoding="UTF-8" standalone="no"?>
<svg width="48px" height="48px" viewBox="0 0 48 48" version="1.1" xmlns="http://www.w3.org/2000/svg" xmlns:xlink="http://www.w3.org/1999/xlink">
    <!-- Generator: sketchtool 46.2 (44496) - http://www.bohemiancoding.com/sketch -->
    <title>print-large</title>
    <desc>Created with sketchtool.</desc>
    <defs></defs>
    <g id="icons-published" stroke="none" stroke-width="1" fill="none" fill-rule="evenodd">
        <g id="briefing" transform="translate(-288.000000, -1434.000000)"></g>
        <g id="print-large" stroke="#000000">
            <path d="M38.5,27.5 L43.5,27.5 C44.6,27.5 45.5,28.4 45.5,29.5 L45.5,44.5 L2.5,44.5 L2.5,29.5 C2.5,28.4 3.4,27.5 4.5,27.5 L9.5,27.5" id="Shape"></path>
            <polygon id="Shape" points="38.5 13.5 38.5 35.5 9.5 35.5 9.5 3.5 28.5 3.5"></polygon>
            <path d="M28.5,3.5 L28.5,13.5 L38.5,13.5 M16,27.5 L32,27.5 M16,20.5 L32,20.5" id="Shape"></path>
        </g>
    </g>
</svg>
